images/apportCHO.svg

<?xml version="1.0" encoding="UTF-8" standalone="no"?>
<!-- Created with Inkscape (http://www.inkscape.org/) -->

<svg
   xmlns:dc="http://purl.org/dc/elements/1.1/"
   xmlns:cc="http://creativecommons.org/ns#"
   xmlns:rdf="http://www.w3.org/1999/02/22-rdf-syntax-ns#"
   xmlns:svg="http://www.w3.org/2000/svg"
   xmlns="http://www.w3.org/2000/svg"
   xmlns:xlink="http://www.w3.org/1999/xlink"
   xmlns:sodipodi="http://sodipodi.sourceforge.net/DTD/sodipodi-0.dtd"
   xmlns:inkscape="http://www.inkscape.org/namespaces/inkscape"
   id="svg2"
   version="1.1"
   inkscape:version="0.47 r22583"
   width="906.59534"
   height="658"
   sodipodi:docname="apportCHO.svg">
  <metadata
     id="metadata8">
    <rdf:RDF>
      <cc:Work
         rdf:about="">
        <dc:format>image/svg+xml</dc:format>
        <dc:type
           rdf:resource="http://purl.org/dc/dcmitype/StillImage" />
        <dc:title />
      </cc:Work>
    </rdf:RDF>
  </metadata>
  <defs
     id="defs6">
    <linearGradient
       id="linearGradient3681">
      <stop
         style="stop-color:#00ff00;stop-opacity:1;"
         offset="0"
         id="stop3683" />
      <stop
         id="stop3689"
         offset="0.5"
         style="stop-color:#00ff00;stop-opacity:1;" />
      <stop
         style="stop-color:#ff00ff;stop-opacity:1;"
         offset="0.5"
         id="stop3691" />
      <stop
         style="stop-color:#ff00ff;stop-opacity:1;"
         offset="1"
         id="stop3685" />
    </linearGradient>
    <inkscape:perspective
       sodipodi:type="inkscape:persp3d"
       inkscape:vp_x="0 : 0.5 : 1"
       inkscape:vp_y="0 : 1000 : 0"
       inkscape:vp_z="1 : 0.5 : 1"
       inkscape:persp3d-origin="0.5 : 0.33333333 : 1"
       id="perspective10" />
    <inkscape:perspective
       id="perspective2862"
       inkscape:persp3d-origin="0.5 : 0.33333333 : 1"
       inkscape:vp_z="1 : 0.5 : 1"
       inkscape:vp_y="0 : 1000 : 0"
       inkscape:vp_x="0 : 0.5 : 1"
       sodipodi:type="inkscape:persp3d" />
    <linearGradient
       inkscape:collect="always"
       xlink:href="#linearGradient3681"
       id="linearGradient3687"
       x1="923.90625"
       y1="321.04065"
       x2="1584.2188"
       y2="321.04065"
       gradientUnits="userSpaceOnUse" />
    <linearGradient
       inkscape:collect="always"
       xlink:href="#linearGradient3681"
       id="linearGradient3704"
       gradientUnits="userSpaceOnUse"
       x1="923.90625"
       y1="321.04065"
       x2="1584.2188"
       y2="321.04065"
       gradientTransform="translate(0,2.9016574)" />
  </defs>
  <sodipodi:namedview
     pagecolor="#ffffff"
     bordercolor="#666666"
     borderopacity="1"
     objecttolerance="10"
     gridtolerance="10"
     guidetolerance="10"
     inkscape:pageopacity="0"
     inkscape:pageshadow="2"
     inkscape:window-width="1440"
     inkscape:window-height="829"
     id="namedview4"
     showgrid="false"
     inkscape:zoom="0.72644377"
     inkscape:cx="406.58368"
     inkscape:cy="371.74463"
     inkscape:window-x="0"
     inkscape:window-y="25"
     inkscape:window-maximized="1"
     inkscape:current-layer="g3693" />
  <image
     xlink:href="file:///home/marache/documentation/Th%C3%A8se/rapportBiblio/images/apportCHO-data.png"
     width="852"
     height="658"
     id="image12"
     x="0"
     y="0" />
  <rect
     style="fill:#ffffff;fill-opacity:1;stroke:none"
     id="rect2818"
     width="560.26361"
     height="170.69456"
     x="290.45602"
     y="14.38912" />
  <flowRoot
     xml:space="preserve"
     id="flowRoot2836"
     style="font-size:40px;font-style:normal;font-weight:normal;fill:#000000;fill-opacity:1;stroke:none;font-family:Bitstream Vera Sans"><flowRegion
       id="flowRegion2838"><rect
         id="rect2840"
         width="830.07111"
         height="221.62761"
         x="951.20923"
         y="227.1339" /></flowRegion><flowPara
       id="flowPara2842" /></flowRoot>  <g
     id="g3693"
     transform="matrix(0.68926129,0,0,0.68926129,-317.22038,-125.48935)">
    <flowRoot
       transform="translate(-1.376569,173.4477)"
       style="font-size:40px;font-style:normal;font-weight:normal;fill:#0000ff;fill-opacity:1;stroke:none;font-family:Bitstream Vera Sans"
       id="flowRoot2820"
       xml:space="preserve"><flowRegion
         id="flowRegion2822"><rect
           style="fill:#0000ff"
           y="37.167362"
           x="926.43097"
           height="185.83682"
           width="857.60248"
           id="rect2824" /></flowRegion><flowPara
         id="flowPara2828">Sans mouvement</flowPara><flowPara
         id="flowPara2834" /></flowRoot>    <text
       id="text2844"
       y="288.86536"
       x="925.05438"
       style="font-size:40px;font-style:normal;font-weight:normal;fill:#ff0000;fill-opacity:1;stroke:none;font-family:Bitstream Vera Sans"
       xml:space="preserve"><tspan
         y="288.86536"
         x="925.05438"
         id="tspan2846"
         sodipodi:role="line">Correction pendant la reconstruction</tspan></text>
    <text
       id="text2848"
       y="330.78217"
       x="921.66016"
       style="font-size:40px;font-style:normal;font-weight:normal;fill:#00ff00;fill-opacity:1;stroke:none;font-family:Bitstream Vera Sans"
       xml:space="preserve"><tspan
         style="fill:#00ff00;fill-opacity:1"
         y="330.78217"
         x="921.66016"
         id="tspan2850"
         sodipodi:role="line">Synchronisation respiratoire avec recalage</tspan></text>
    <text
       xml:space="preserve"
       style="font-size:40px;font-style:normal;font-weight:normal;fill:#ff00ff;fill-opacity:1;stroke:none;font-family:Bitstream Vera Sans"
       x="921.66016"
       y="372.69907"
       id="text3616"><tspan
         sodipodi:role="line"
         id="tspan3618"
         x="921.66016"
         y="372.69907"
         style="fill:#ff00ff;fill-opacity:1">Correction hybride</tspan></text>
  </g>
  <flowRoot
     xml:space="preserve"
     id="flowRoot2882"
     style="font-size:40px;font-style:normal;font-weight:normal;fill:#000000;fill-opacity:1;stroke:none;font-family:Bitstream Vera Sans"><flowRegion
       id="flowRegion2884"><rect
         id="rect2886"
         width="253.2887"
         height="70.205025"
         x="903.0293"
         y="294.58578" /></flowRegion><flowPara
       id="flowPara2888" /></flowRoot>  <flowRoot
     xml:space="preserve"
     id="flowRoot3662"
     style="font-size:40px;font-style:normal;font-weight:normal;fill:#000000;fill-opacity:1;stroke:none;font-family:Bitstream Vera Sans"><flowRegion
       id="flowRegion3664"><rect
         id="rect3666"
         width="620.83264"
         height="172.07114"
         x="152.79916"
         y="348.27197" /></flowRegion><flowPara
       id="flowPara3668" /></flowRoot>  <path
     style="fill:#ffffff;fill-opacity:1;stroke:none"
     d="m 150.03125,351.03125 0,121.125 17.90625,0 0,63.34375 587.8125,0 0,-130.78125 -483.1875,0 0,-53.6875 -122.53125,0 z"
     id="rect3670" />
</svg>

<?xml version="1.0" encoding="UTF-8" standalone="no"?>
<!-- Created with Inkscape (http://www.inkscape.org/) -->

<svg
   xmlns:dc="http://purl.org/dc/elements/1.1/"
   xmlns:cc="http://creativecommons.org/ns#"
   xmlns:rdf="http://www.w3.org/1999/02/22-rdf-syntax-ns#"
   xmlns:svg="http://www.w3.org/2000/svg"
   xmlns="http://www.w3.org/2000/svg"
   xmlns:xlink="http://www.w3.org/1999/xlink"
   xmlns:sodipodi="http://sodipodi.sourceforge.net/DTD/sodipodi-0.dtd"
   xmlns:inkscape="http://www.inkscape.org/namespaces/inkscape"
   id="svg2"
   version="1.1"
   inkscape:version="0.47 r22583"
   width="852"
   height="658"
   sodipodi:docname="apportCHO.svg">
  <metadata
     id="metadata8">
    <rdf:RDF>
      <cc:Work
         rdf:about="">
        <dc:format>image/svg+xml</dc:format>
        <dc:type
           rdf:resource="http://purl.org/dc/dcmitype/StillImage" />
        <dc:title />
      </cc:Work>
    </rdf:RDF>
  </metadata>
  <defs
     id="defs6">
    <linearGradient
       id="linearGradient3681">
      <stop
         style="stop-color:#00ff00;stop-opacity:1;"
         offset="0"
         id="stop3683" />
      <stop
         id="stop3689"
         offset="0.5"
         style="stop-color:#00ff00;stop-opacity:1;" />
      <stop
         style="stop-color:#ff00ff;stop-opacity:1;"
         offset="0.5"
         id="stop3691" />
      <stop
         style="stop-color:#ff00ff;stop-opacity:1;"
         offset="1"
         id="stop3685" />
    </linearGradient>
    <inkscape:perspective
       sodipodi:type="inkscape:persp3d"
       inkscape:vp_x="0 : 0.5 : 1"
       inkscape:vp_y="0 : 1000 : 0"
       inkscape:vp_z="1 : 0.5 : 1"
       inkscape:persp3d-origin="0.5 : 0.33333333 : 1"
       id="perspective10" />
    <inkscape:perspective
       id="perspective2862"
       inkscape:persp3d-origin="0.5 : 0.33333333 : 1"
       inkscape:vp_z="1 : 0.5 : 1"
       inkscape:vp_y="0 : 1000 : 0"
       inkscape:vp_x="0 : 0.5 : 1"
       sodipodi:type="inkscape:persp3d" />
    <linearGradient
       inkscape:collect="always"
       xlink:href="#linearGradient3681"
       id="linearGradient3687"
       x1="923.90625"
       y1="321.04065"
       x2="1584.2188"
       y2="321.04065"
       gradientUnits="userSpaceOnUse" />
    <linearGradient
       inkscape:collect="always"
       xlink:href="#linearGradient3681"
       id="linearGradient3704"
       gradientUnits="userSpaceOnUse"
       x1="923.90625"
       y1="321.04065"
       x2="1584.2188"
       y2="321.04065" />
  </defs>
  <sodipodi:namedview
     pagecolor="#ffffff"
     bordercolor="#666666"
     borderopacity="1"
     objecttolerance="10"
     gridtolerance="10"
     guidetolerance="10"
     inkscape:pageopacity="0"
     inkscape:pageshadow="2"
     inkscape:window-width="1920"
     inkscape:window-height="1009"
     id="namedview4"
     showgrid="false"
     inkscape:zoom="0.72644377"
     inkscape:cx="714.93515"
     inkscape:cy="371.74463"
     inkscape:window-x="0"
     inkscape:window-y="25"
     inkscape:window-maximized="1"
     inkscape:current-layer="svg2" />
  <image
     xlink:href="file:///home/marache/documentation/Th%C3%A8se/rapportBiblio/images/apportCHO-data.png"
     width="852"
     height="658"
     id="image12"
     x="0"
     y="0" />
  <rect
     style="fill:#ffffff;fill-opacity:1;stroke:none"
     id="rect2818"
     width="560.26361"
     height="170.69456"
     x="290.45602"
     y="14.38912" />
  <flowRoot
     xml:space="preserve"
     id="flowRoot2836"
     style="fill:black;stroke:none;stroke-opacity:1;stroke-width:1px;stroke-linejoin:miter;stroke-linecap:butt;fill-opacity:1;font-family:Bitstream Vera Sans;font-style:normal;font-weight:normal;font-size:40px"><flowRegion
       id="flowRegion2838"><rect
         id="rect2840"
         width="830.07111"
         height="221.62761"
         x="951.20923"
         y="227.1339" /></flowRegion><flowPara
       id="flowPara2842" /></flowRoot>  <g
     id="g3693"
     transform="matrix(0.68926129,0,0,0.68926129,-317.22038,-125.48935)">
    <flowRoot
       transform="translate(-1.376569,173.4477)"
       style="font-size:40px;font-style:normal;font-weight:normal;fill:#0000ff;fill-opacity:1;stroke:none;font-family:Bitstream Vera Sans"
       id="flowRoot2820"
       xml:space="preserve"><flowRegion
         id="flowRegion2822"><rect
           style="fill:#0000ff"
           y="37.167362"
           x="926.43097"
           height="185.83682"
           width="857.60248"
           id="rect2824" /></flowRegion><flowPara
         id="flowPara2828">Sans mouvement</flowPara><flowPara
         id="flowPara2834" /></flowRoot>    <text
       id="text2844"
       y="290.45609"
       x="925.05438"
       style="font-size:40px;font-style:normal;font-weight:normal;fill:#ff0000;fill-opacity:1;stroke:none;font-family:Bitstream Vera Sans"
       xml:space="preserve"><tspan
         y="290.45609"
         x="925.05438"
         id="tspan2846"
         sodipodi:role="line">Correction pendant la reconstruction</tspan></text>
    <text
       id="text2848"
       y="332.07581"
       x="921.66016"
       style="font-size:40px;font-style:normal;font-weight:normal;fill:url(#linearGradient3704);fill-opacity:1;stroke:none;font-family:Bitstream Vera Sans"
       xml:space="preserve"><tspan
         style="fill:url(#linearGradient3704);fill-opacity:1"
         y="332.07581"
         x="921.66016"
         id="tspan2850"
         sodipodi:role="line">Correction par gating et recalage</tspan></text>
  </g>
  <flowRoot
     xml:space="preserve"
     id="flowRoot2882"
     style="fill:black;stroke:none;stroke-opacity:1;stroke-width:1px;stroke-linejoin:miter;stroke-linecap:butt;fill-opacity:1;font-family:Bitstream Vera Sans;font-style:normal;font-weight:normal;font-size:40px"><flowRegion
       id="flowRegion2884"><rect
         id="rect2886"
         width="253.2887"
         height="70.205025"
         x="903.0293"
         y="294.58578" /></flowRegion><flowPara
       id="flowPara2888" /></flowRoot>  <flowRoot
     xml:space="preserve"
     id="flowRoot3662"
     style="fill:black;stroke:none;stroke-opacity:1;stroke-width:1px;stroke-linejoin:miter;stroke-linecap:butt;fill-opacity:1;font-family:Bitstream Vera Sans;font-style:normal;font-weight:normal;font-size:40px"><flowRegion
       id="flowRegion3664"><rect
         id="rect3666"
         width="620.83264"
         height="172.07114"
         x="152.79916"
         y="348.27197" /></flowRegion><flowPara
       id="flowPara3668" /></flowRoot>  <path
     style="fill:#ffffff;fill-opacity:1;stroke:none;opacity:1"
     d="M 150.03125 351.03125 L 150.03125 472.15625 L 167.9375 472.15625 L 167.9375 535.5 L 755.75 535.5 L 755.75 404.71875 L 272.5625 404.71875 L 272.5625 351.03125 L 150.03125 351.03125 z "
     id="rect3670" />
</svg>
